images/timeout.svg

<svg xmlns="http://www.w3.org/2000/svg" viewBox="0 0 16 16">
  <defs/>
  <path fill="#474747" d="M14.7595625.05265625C13.9487812.00228125 13.105.03484375 12.2517813.1495625c-.7081251.09525-1.4322188.248375-2.1521875.45528125-.48737505.14003125-.84506255.5354375-.93350005 1.03196875-.08859375.4973125.1108125.9926875.520375 1.29275C10.3680937 3.429 11.0145937 3.98321875 11.608 4.57684375c.0561562.0561875.1117812.11309375.1672187.17021875l-1.1068125 1.10009375c-.0862812.08575-.0915312.22365625-.0120312.31571875.6637187.76871875 1.1980312 1.67275 1.5450625 2.614125.078875.21396875-.037.4594375-.2521563.5376875-.216625.07878125-.464625-.0343125-.5439687-.2498125-.3047813-.82775-.7509375-1.59428125-1.3260313-2.2783125-.0857187-.1019375-.24674995-.10940625-.34062495-.01521875L8.61025 7.89265625c-.0863125.08578125-.0915625.22371875-.01203125.31578125C9.2621875 8.977125 9.7964375 9.881 10.1432813 10.822375c.0789375.2142187-.0367188.4591875-.25200005.5379062-.21596875.0789688-.46453125-.0349687-.54390625-.2502187-.30115625-.8167813-.7598125-1.6044375-1.32634375-2.2779375-.08575-.1019375-.246625-.1095625-.34059375-.0151875L6.55234375 9.93825c-.0863125.0857813-.09153125.2237187-.01196875.3157813.6639375.7683749 1.1981875 1.6722187 1.5450625 2.6139687.07903125.2145312-.037375.4590625-.2525.5379375-.21571875.0790625-.4641875-.035375-.54340625-.2502813-.30515625-.8279062-.75140625-1.5944375-1.3263125-2.2782187-.08571875-.1019375-.246625-.1095938-.340625-.01525l-.26640625.2647812c-.09075.0901563-.09121875.236875-.00103125.3276251.09021875.0907499.23690625.0911874.327625.0010312l.08459375-.0840625c.45975.5880312.83346875 1.2555 1.0873125 1.9441875.1655625.4491562.6845.6915 1.1373125.5254062.4508125-.165375.693-.6857812.52815625-1.1333125-.34125-.9265625-.854375-1.8182187-1.489875-2.5913437l.795-.7901875c.4595.5875.8331875 1.254875 1.0873125 1.9440625.16565625.44925.684375.6907812 1.13737495.5253125.4517188-.165.6936875-.683875.5280626-1.1334063-.3412813-.92624995-.85437505-1.8179062-1.48987505-2.59124995l.79528125-.79025c.459875.58821875.8334688 1.255625 1.0870937 1.9444375.1277501.3463125.4625001.579.8330001.579.3394375 0 .6618125-.204625.8049375-.5128125.0992499-.21371875.1091562-.45315625.0277812-.67440625-.3415-.92640625-.854625-1.81815625-1.4899063-2.5915l.9467813-.94103125c.3536563.3855625.6907813.789 1.0059375 1.2059375.2559063.3385625.644.5283125 1.05525.5283125.091375 0 .1839687-.009375.2764375-.0285625.5033437-.10446875.891-.4785 1.0117187-.976125.1198438-.494.2217813-.99275.3030625-1.48240625.1663438-1.00240625.2519375-2.0006875.2544421-2.96715625C16.0017813.6721875 15.4569062.096 14.7595625.05265625zm.528875 4.203c-.0794063.4785-.1790625.966-.2962188 1.449-.0792812.32678125-.324375.5629375-.6555937.63165625-.331625.0689375-.6641563-.05590625-.8679063-.3254375C12.4731875 4.6939375 11.294 3.53284375 9.96034375 2.55575c-.26990625-.19775-.39628125-.5109375-.3380625-.83775.0580625-.32596875.28434375-.57565625.60531245-.667875C10.9259062.8495 11.6277187.701 12.3135625.60878125c.8177812-.10996875 1.6109687-.14384375 2.4172812-.0936875.4530313.0281875.807.40065625.8058466.84803125-.0024716.9415625-.0860028 1.91471875-.2482528 2.89253125zM5.007125 9.9270625C4.31934375 9.355875 3.54834375 8.9125 2.7154375 8.6093125c-.2153125-.078375-.3310625-.323-.2519375-.5376875.0803125-.217875.32453125-.33009375.54421875-.25009375.947.34465625 1.85671875.8758125 2.63084375 1.53609375.09175.07828125.2281875.07309375.31365625-.0119375L7.0803125 8.224375c.09578125-.0941875.08784375-.256875-.0153125-.34253125-.6881875-.5715625-1.4591875-1.01496875-2.2916875-1.3180625-.21528125-.078375-.33075-.32265625-.251625-.5374375.08028125-.2179375.32425-.330125.54390625-.2500625.948.34496875 1.85771875.8760625 2.6308125 1.53575.09171875.07828125.22815625.073125.3136875-.01190625L9.1381875 6.1788125c.09575-.09415625.08784375-.2568125-.01525-.3425-.6873125-.57109375-1.45825-1.01446875-2.29128125-1.31771875-.215375-.07840625-.3313125-.32284375-.25209375-.53784375.0803125-.21796875.3244375-.33015625.54421875-.2500625.94778125.34490625 1.857375.87609375 2.63046875 1.5360625.09171875.07828125.2281875.073125.31375-.011875l.5981875-.5945c.09075-.0901875.0911875-.236875.001-.327625-.0902188-.09075-.2369063-.0911875-.3276563-.001l-.4486562.445875c-.7780625-.63228125-1.67571875-1.1428125-2.60853125-1.4823125-.45896875-.16728125-.96925.06834375-1.1375625.52521875-.08140625.2208125-.07171875.46009375.02734375.67378125.099625.21496875.2775.3781875.5009375.45965625C7.36578125 5.206125 8.0366875 5.577 8.62753125 6.0330625l-.7945625.78978125c-.77809375-.632-1.675875-1.1424375-2.60884375-1.48196875-.45871875-.1671875-.9689375.06834375-1.13721875.5251875-.0815.22103125-.07175.4605.02740625.67425.099625.21478125.2774375.37775.5005625.458875.69225.25196875 1.3631875.6229375 1.95471875 1.0794375l-.7945625.78978125C4.996125 8.235875 4.0983125 7.7253125 3.16609375 7.38603125c-.458875-.16690625-.96909375.06878125-1.13746875.5255-.0813125.22128125-.071375.460875.0279375.674625.09971875.214625.27746875.37746875.50040625.4585625.6925625.25209375 1.36353125.62296875 1.95475 1.07915625-.1278125.1282188-.7111875.680375-.7985.8314062-.48153125-.0131249-.977.0135313-1.47725.0808125-.49925.067125-1.00978125.1750938-1.51734375.3209375-.367.1055-.636375.4033438-.703.7774063-.06671875.3745937.08340625.7476562.3918125.973625.4745.3476562.924625.7335313 1.33784375 1.146875.37103125.3711562.72028125.7725313 1.03809375 1.1929063.237875.3146562.62515625.4543749 1.00221875.3761562.3790625-.0786563.67103125-.3604063.762-.7352813.0843125-.3475625.15609375-.6985937.21328125-1.0433125.117125-.7057812.17740625-1.40875.17915625-2.0894687.001125-.4308125-.2788125-.8017188-.6721875-.9361562l.754625-.7502188c.09575-.0941562.08775-.256875-.01534375-.3425zM4.47665801 11.95475c-.00168926.6557812-.05987676 1.3336562-.17290801 2.0148125-.05534375.3335625-.1248125.673375-.20646875 1.0099375-.0490625.2021875-.20078125.3482812-.40584375.3908437-.20884375.0432188-.410125-.032125-.5384375-.201875-.33059375-.4373437-.69396875-.8549062-1.08003125-1.241125-.42990625-.4300312-.898125-.8314375-1.3916875-1.1930312-.1671875-.1225-.2455-.316375-.20946875-.518625.03590625-.2016563.17603125-.3561563.3748125-.4132813.4859375-.1395937.97415625-.2429375 1.45115625-.3070312.57228125-.0769688 1.13740625-.0988438 1.6795625-.0651563.28071875.0174688.50003125.2478438.49931426.5245313zm9.83877949-9.60640625h-.7423438v-.742375c0-.12796875-.1037187-.2316875-.2316875-.2316875-.1279687 0-.2316875.10371875-.2316875.2316875v.74234375h-.742375c-.1279374 0-.2316874.10371875-.2316874.2316875s.1037187.2316875.2316874.2316875h.742375v.742375c0 .12796875.1037188.2316875.2316875.2316875.1279688 0 .2316875-.10371875.2316875-.2316875v-.742375h.7423438c.1279375 0 .2316875-.10371875.2316875-.2316875-.0000313-.12796875-.10375-.23165625-.2316875-.23165625z"/>
</svg>

<svg xmlns="http://www.w3.org/2000/svg" width="16" height="16" viewBox="0 0 16 16">
  <path fill="#474747" d="M14.7595625,0.05265625 C13.9487812,0.00228125 13.105,0.03484375 12.2517813,0.1495625 C11.5436562,0.2448125 10.8195625,0.3979375 10.0995938,0.60484375 C9.61221875,0.744875 9.25453125,1.14028125 9.16609375,1.6368125 C9.0775,2.134125 9.27690625,2.6295 9.68646875,2.9295625 C10.3680937,3.429 11.0145937,3.98321875 11.608,4.57684375 C11.6641562,4.63303125 11.7197812,4.6899375 11.7752187,4.7470625 L10.6684062,5.84715625 C10.582125,5.93290625 10.576875,6.0708125 10.656375,6.162875 C11.3200937,6.93159375 11.8544062,7.835625 12.2014375,8.777 C12.2803125,8.99096875 12.1644375,9.2364375 11.9492812,9.3146875 C11.7326562,9.39346875 11.4846562,9.280375 11.4053125,9.064875 C11.1005312,8.237125 10.654375,7.47059375 10.0792812,6.7865625 C9.9935625,6.684625 9.83253125,6.67715625 9.73865625,6.77134375 L8.61025,7.89265625 C8.5239375,7.9784375 8.5186875,8.116375 8.59821875,8.2084375 C9.2621875,8.977125 9.7964375,9.881 10.1432813,10.822375 C10.2222188,11.0365937 10.1065625,11.2815625 9.89128125,11.3602812 C9.6753125,11.43925 9.42675,11.3253125 9.347375,11.1100625 C9.04621875,10.2932812 8.5875625,9.505625 8.02103125,8.832125 C7.93528125,8.7301875 7.77440625,8.7225625 7.6804375,8.8169375 L6.55234375,9.93825 C6.46603125,10.0240313 6.4608125,10.1619687 6.540375,10.2540313 C7.2043125,11.0224062 7.7385625,11.92625 8.0854375,12.868 C8.16446875,13.0825312 8.0480625,13.3270625 7.8329375,13.4059375 C7.61721875,13.485 7.36875,13.3705625 7.28953125,13.1556562 C6.984375,12.32775 6.538125,11.5612187 5.96321875,10.8774375 C5.8775,10.7755 5.71659375,10.7678437 5.62259375,10.8621875 L5.3561875,11.1269687 C5.2654375,11.217125 5.26496875,11.3638437 5.35515625,11.4545938 C5.445375,11.5453437 5.5920625,11.5457812 5.68278125,11.455625 L5.767375,11.3715625 C6.227125,11.9595937 6.60084375,12.6270625 6.8546875,13.31575 C7.02025,13.7649062 7.5391875,14.00725 7.992,13.8411562 C8.4428125,13.6757812 8.685,13.155375 8.52015625,12.7078437 C8.17890625,11.7812812 7.66578125,10.889625 7.03028125,10.1165 L7.82528125,9.3263125 C8.28478125,9.9138125 8.65846875,10.5811875 8.91259375,11.270375 C9.07825,11.719625 9.59696875,11.9611562 10.0499687,11.7956875 C10.5016875,11.6306875 10.7436562,11.1118125 10.5780313,10.6622812 C10.23675,9.73603125 9.72365625,8.844375 9.08815625,8.07103125 L9.8834375,7.28078125 C10.3433125,7.869 10.7169063,8.53640625 10.9705312,9.22521875 C11.0982813,9.57153125 11.4330313,9.80421875 11.8035313,9.80421875 C12.1429688,9.80421875 12.4653438,9.59959375 12.6084688,9.29140625 C12.7077187,9.0776875 12.717625,8.83825 12.63625,8.617 C12.29475,7.69059375 11.781625,6.79884375 11.1463437,6.0255 L12.093125,5.08446875 C12.4467813,5.47003125 12.7839063,5.87346875 13.0990625,6.29040625 C13.3549688,6.62896875 13.7430625,6.81871875 14.1543125,6.81871875 C14.2456875,6.81871875 14.3382812,6.80934375 14.43075,6.79015625 C14.9340937,6.6856875 15.32175,6.31165625 15.4424687,5.81403125 C15.5623125,5.32003125 15.66425,4.82128125 15.7455312,4.331625 C15.911875,3.32921875 15.9974687,2.3309375 15.9999733,1.36446875 C16.0017813,0.6721875 15.4569062,0.096 14.7595625,0.05265625 Z M15.2884375,4.25565625 C15.2090312,4.73415625 15.109375,5.22165625 14.9922187,5.70465625 C14.9129375,6.0314375 14.6678437,6.26759375 14.336625,6.3363125 C14.005,6.40525 13.6724687,6.28040625 13.4687187,6.010875 C12.4731875,4.6939375 11.294,3.53284375 9.96034375,2.55575 C9.6904375,2.358 9.5640625,2.0448125 9.62228125,1.718 C9.68034375,1.39203125 9.906625,1.14234375 10.2275937,1.050125 C10.9259062,0.8495 11.6277187,0.701 12.3135625,0.60878125 C13.1313437,0.4988125 13.9245312,0.4649375 14.7308437,0.51509375 C15.183875,0.54328125 15.5378437,0.91575 15.5366903,1.363125 C15.5342187,2.3046875 15.4506875,3.27784375 15.2884375,4.25565625 L15.2884375,4.25565625 Z M5.007125,9.9270625 C4.31934375,9.355875 3.54834375,8.9125 2.7154375,8.6093125 C2.500125,8.5309375 2.384375,8.2863125 2.4635,8.071625 C2.5438125,7.85375 2.78803125,7.74153125 3.00771875,7.82153125 C3.95471875,8.1661875 4.8644375,8.69734375 5.6385625,9.357625 C5.7303125,9.43590625 5.86675,9.43071875 5.95221875,9.3456875 L7.0803125,8.224375 C7.17609375,8.1301875 7.16815625,7.9675 7.065,7.88184375 C6.3768125,7.31028125 5.6058125,6.866875 4.7733125,6.56378125 C4.55803125,6.48540625 4.4425625,6.241125 4.5216875,6.02634375 C4.60196875,5.80840625 4.8459375,5.69621875 5.06559375,5.77628125 C6.01359375,6.12125 6.9233125,6.65234375 7.69640625,7.31203125 C7.788125,7.3903125 7.9245625,7.38515625 8.01009375,7.300125 L9.1381875,6.1788125 C9.2339375,6.08465625 9.22603125,5.922 9.1229375,5.8363125 C8.435625,5.26521875 7.6646875,4.82184375 6.83165625,4.51859375 C6.61628125,4.4401875 6.50034375,4.19575 6.5795625,3.98075 C6.659875,3.76278125 6.904,3.65059375 7.12378125,3.7306875 C8.0715625,4.07559375 8.98115625,4.60678125 9.75425,5.26675 C9.84596875,5.34503125 9.9824375,5.339875 10.068,5.254875 L10.6661875,4.660375 C10.7569375,4.5701875 10.757375,4.4235 10.6671875,4.33275 C10.5769687,4.242 10.4302812,4.2415625 10.3395312,4.33175 L9.890875,4.777625 C9.1128125,4.14534375 8.21515625,3.6348125 7.28234375,3.2953125 C6.823375,3.12803125 6.31309375,3.36365625 6.14478125,3.82053125 C6.063375,4.04134375 6.0730625,4.280625 6.172125,4.4943125 C6.27175,4.70928125 6.449625,4.8725 6.6730625,4.95396875 C7.36578125,5.206125 8.0366875,5.577 8.62753125,6.0330625 L7.83296875,6.82284375 C7.054875,6.19084375 6.15709375,5.68040625 5.224125,5.340875 C4.76540625,5.1736875 4.2551875,5.40921875 4.08690625,5.8660625 C4.00540625,6.08709375 4.01515625,6.3265625 4.1143125,6.5403125 C4.2139375,6.75509375 4.39175,6.9180625 4.614875,6.9991875 C5.307125,7.25115625 5.9780625,7.622125 6.56959375,8.078625 L5.77503125,8.86840625 C4.996125,8.235875 4.0983125,7.7253125 3.16609375,7.38603125 C2.70721875,7.219125 2.197,7.4548125 2.028625,7.91153125 C1.9473125,8.1328125 1.95725,8.37240625 2.0565625,8.58615625 C2.15628125,8.80078125 2.33403125,8.963625 2.55696875,9.04471875 C3.24953125,9.2968125 3.9205,9.6676875 4.51171875,10.123875 C4.38390625,10.2520938 3.80053125,10.80425 3.71321875,10.9552812 C3.2316875,10.9421563 2.73621875,10.9688125 2.23596875,11.0360937 C1.73671875,11.1032187 1.2261875,11.2111875 0.718625,11.3570312 C0.351625,11.4625312 0.08225,11.760375 0.015625,12.1344375 C-0.05109375,12.5090312 0.09903125,12.8820937 0.4074375,13.1080625 C0.8819375,13.4557187 1.3320625,13.8415938 1.74528125,14.2549375 C2.1163125,14.6260937 2.4655625,15.0274688 2.783375,15.4478438 C3.02125,15.7625 3.40853125,15.9022187 3.78559375,15.824 C4.16465625,15.7453437 4.456625,15.4635937 4.54759375,15.0887187 C4.63190625,14.7411562 4.7036875,14.390125 4.760875,14.0454062 C4.878,13.339625 4.93828125,12.6366562 4.94003125,11.9559375 C4.94115625,11.525125 4.66121875,11.1542187 4.26784375,11.0197813 L5.02246875,10.2695625 C5.11821875,10.1754063 5.11021875,10.0126875 5.007125,9.9270625 Z M4.47665801,11.95475 C4.47496875,12.6105312 4.41678125,13.2884062 4.30375,13.9695625 C4.24840625,14.303125 4.1789375,14.6429375 4.09728125,14.9795 C4.04821875,15.1816875 3.8965,15.3277812 3.6914375,15.3703437 C3.48259375,15.4135625 3.2813125,15.3382187 3.153,15.1684687 C2.82240625,14.731125 2.45903125,14.3135625 2.07296875,13.9273437 C1.6430625,13.4973125 1.17484375,13.0959062 0.68128125,12.7343125 C0.51409375,12.6118125 0.43578125,12.4179375 0.4718125,12.2156875 C0.50771875,12.0140312 0.64784375,11.8595312 0.846625,11.8024062 C1.3325625,11.6628125 1.82078125,11.5594687 2.29778125,11.495375 C2.8700625,11.4184062 3.4351875,11.3965312 3.97734375,11.4302187 C4.2580625,11.4476875 4.477375,11.6780625 4.47665801,11.95475 L4.47665801,11.95475 Z M14.3154375,2.34834375 L13.5730937,2.34834375 L13.5730937,1.60596875 C13.5730937,1.478 13.469375,1.37428125 13.3414062,1.37428125 C13.2134375,1.37428125 13.1097187,1.478 13.1097187,1.60596875 L13.1097187,2.3483125 L12.3673437,2.3483125 C12.2394063,2.3483125 12.1356563,2.45203125 12.1356563,2.58 C12.1356563,2.70796875 12.239375,2.8116875 12.3673437,2.8116875 L13.1097187,2.8116875 L13.1097187,3.5540625 C13.1097187,3.68203125 13.2134375,3.78575 13.3414062,3.78575 C13.469375,3.78575 13.5730937,3.68203125 13.5730937,3.5540625 L13.5730937,2.8116875 L14.3154375,2.8116875 C14.443375,2.8116875 14.547125,2.70796875 14.547125,2.58 C14.5470937,2.45203125 14.443375,2.34834375 14.3154375,2.34834375 Z"/>
</svg>
